X:1
T:J. S. Bach
T:The Well-Tempered Clavier Part I Fuga X
T:BWV 855
%%score { 1 | 2 }
L:1/8
M:3/4
K:G
V:1 treble nm="Harp"
V:2 bass 
V:1
 E/G/B/e/ ^d/e/=d/e/ ^c/e/=c/e/ | B/e/^d/e/ ^A/^c/G/F/ G/A/F/E/ | DB z/ f/g/f/ e/d/^c/e/ | %3
 d2- d/^c/B/^A/ B/c/A/B/ | ^c/F/^A/c/ e/A/c/e/ g/f/e/g/ | f/e/d/^c/ B/^A/^G/F/ d2- | %6
 d/E/^G/B/ d/G/B/d/ =f/e/d/f/ | e/d/c/B/ A/^G/F/E/ c2- | c/A/D/E/ F/G/A/B/ c/d/e/f/ | %9
 g/f/a/g/ f/e/d/c/ B/g/A/f/ | G/B/d/g/ f/g/=f/g/ e/g/_e/g/ | d/g/f/g/ ^c/e/_B/A/ B/c/A/G/ | %12
 Fd z/ a/b/a/ g/f/e/g/ | f2- f/e/d/^c/ d/e/c/d/ | e/d/^c/B/ A/^G/e/d/ c/B/A/=G/ | FD FA dF | %16
 d/c/B/A/ G/F/d/c/ B/A/G/=F/ | EC EG cE | e/d/c/B/ A/^G/e/d/ c/B/A/G/ | %19
 A/c/e/a/ z/ e/=f/e/ d/c/B/d/ | c2- c/B/A/^G/ A/F/^D/B/ | E/G/B/e/ ^d/e/=d/e/ ^c/e/=c/e/ | %22
 B/e/^d/e/ ^A/^c/G/F/ G/A/F/E/ | ^DB z/ b/c'/b/ a/g/f/a/ | g2- g/f/e/^d/ e/f/=d/e/ | %25
 ^ca z/ a/_b/a/ g/=f/e/g/ | =f2- f/e/d/^c/ d/e/=c/d/ | Bg z/ A/B/c/ d/e/=f/d/ | %28
 e/d/g/=f/ e/d/^c/_B/ A/B/G/A/ | =Fd z/ a/_b/a/ g/=f/e/g/ | =f2- f/e/d/c/ d/c/d/e/ | %31
 A/c/e/a/ ^g/a/=g/a/ f/a/=f/a/ | e/a/^g/a/ ^d/f/c/B/ c/d/B/A/ | ^GE GB eG | %34
 e/d/^c/B/ A/^G/e/d/ c/B/A/=G/ | FD FA dF | d/c/B/A/ G/F/d/c/ B/A/G/F/ | %37
 B/A/G/F/ E/^D/B/A/ G/F/E/D/ | E/G/B/e/ ^d/e/=d/e/ ^c/e/=c/e/ | B/A/G/c/ B/A/B/^G/ A/=G/A/F/ | %40
 G/F/G/A/ ^D/F/C/B,/ C/D/B,/A,/ | ^G,/4B,/4E/ z z2 z2 |] %42
V:2
 z2 z4 | z2 z4 | B,,/D,/F,/B,/ ^A,/B,/=A,/B,/ ^G,/B,/=G,/B,/ | %3
 F,/B,/^A,/B,/ =F,/^G,/D,/^C,/ D,/F,/C,/B,,/ | ^A,,F, z/ F/G/F/ E/D/^C/E/ | %5
 D2- D/^C/B,/^A,/ B,/C/=A,/B,/ | ^G,,E, z/ E/=F/E/ D/C/B,/D/ | C2- C/B,/A,/^G,/ A,/B,/=G,/A,/ | %8
 F,,D, z/ E,/F,/G,/ A,/B,/C/A,/ | B,/A,/C/B,/ A,/G,/F,/E,/ D,/E,/C,/D,/ | %10
 B,,G, z/ D/E/D/ C/B,/A,/C/ | B,2- B,/A,/G,/F,/ G,/F,/G,/A,/ | D,/F,/A,/D/ ^C/D/=C/D/ B,/D/_B,/D/ | %13
 A,/D/^C/D/ ^G,/B,/=F,/E,/ F,/G,/E,/D,/ | ^C,A,, C,E, A,C, | %15
 A,/G,/F,/E,/ D,/^C,/A,/G,/ F,/E,/D,/=C,/ | B,,G,, B,,D, G,B,, | %17
 G,/=F,/E,/D,/ C,/B,,/G,/F,/ E,/D,/C,/B,,/ | E,/D,/C,/B,,/ A,,/^G,,/E,/D,/ C,/B,,/A,,/G,,/ | %19
 A,,/C,/E,/A,/ ^G,/A,/=G,/A,/ F,/A,/=F,/A,/ | E,/A,/^G,/A,/ ^D,/F,/C,/B,,/ C,/D,/B,,/A,,/ | %21
 G,,E, z/ B,/C/B,/ A,/G,/F,/A,/ | G,2- G,/F,/E,/^D,/ E,/F,/D,/E,/ | %23
 F,/B,,/^D,/F,/ A,/D,/F,/A,/ C/B,/A,/C/ | B,/A,/G,/F,/ E,/^D,/^C,/B,,/ G,2- | %25
 G,/A,,/^C,/E,/ G,/C,/E,/G,/ _B,/A,/G,/B,/ | A,/G,/=F,/E,/ D,/^C,/B,,/A,,/ F,2- | %27
 F,/D,/G,,/A,,/ B,,/C,/D,/E,/ =F,/G,/A,/B,/ | C/B,/E/D/ ^C/_B,/A,/G,/ =F,/D/E,/C/ | %29
 D,/=F,/A,/D/ ^C/D/=C/D/ B,/D/^A,/D/ | A,/D/^C/D/ ^G,/B,/=F,/E,/ F,/G,/E,/D,/ | %31
 C,A, z/ E/=F/E/ D/C/B,/D/ | C2- C/B,/A,/^G,/ A,/F,/^D,/F,/ | %33
 B,/A,/^G,/F,/ E,/^D,/B,/A,/ G,/F,/E,/=D,/ | ^C,A,, C,E, A,C, | %35
 A,/G,/F,/E,/ D,/^C,/A,/G,/ F,/E,/D,/=C,/ | B,,G,, B,,D, G,B,, | %37
 B,/A,/G,/F,/ E,/^D,/B,/A,/ G,/F,/E,/D,/ | E,/B,,/G,,/E,,/ z/ B,/C/B,/ A,/G,/A,/F,/ | %39
 G,/F,/E,/E/ ^D/E/=D/E/ ^C/E/=C/E/ | B,A, B, z B,, z | E,, z z2 z2 |] %42

